X:135
T: Kuckuk
N: A0167
O: Europa, Mitteleuropa, Deutschland
N: Forster II 1540 No. 29.
R: Romanze, Ballade, Lied
M: 4/2
L: 1/8
K: F
F4 | G4F4E4F4 | G8A8 | F8z4
F4 | A4A4B4B4 | c8c8 | G6ABc4
c4 | B4A4G4F4 | G8E8 | F6G2A4
c4 | B4A4G4F4 | G8E8 | F8z4

